build/img/expert-icon.svg

<svg width="29" height="31" viewBox="0 0 29 31" fill="none" xmlns="http://www.w3.org/2000/svg">
<path d="M20.942 12.3154C20.942 11.94 20.7119 11.6131 20.3729 11.4678C18.0963 10.5111 16.3162 8.74316 15.3475 6.4666C15.2021 6.11543 14.8631 5.89746 14.4877 5.89746C14.1123 5.89746 13.7854 6.11543 13.6279 6.4666C12.6713 8.73106 10.8912 10.499 8.62676 11.4557C8.28769 11.601 8.05762 11.9279 8.05762 12.3033C8.05762 12.6787 8.27559 13.0057 8.61465 13.1631C10.7943 14.1197 12.6107 15.9604 13.6158 18.2248C13.7611 18.5639 14.1002 18.7818 14.4635 18.7818C14.8268 18.7818 15.1658 18.5639 15.3111 18.2127C16.2557 16.0209 18.1084 14.1803 20.3729 13.1752C20.724 13.0178 20.942 12.6787 20.942 12.3154ZM14.4635 17.2803C13.3857 15.1248 11.6299 13.3568 9.54707 12.3154C11.7025 11.274 13.4342 9.55449 14.4756 7.39902C15.5291 9.5666 17.2607 11.2982 19.4404 12.3275C17.285 13.4174 15.5049 15.1854 14.4635 17.2803Z" fill="#FF7B7A"/>
<path d="M20.2882 21.8937C20.3972 21.93 20.5425 21.9784 20.7241 21.9663C21.0148 21.9542 21.2812 21.8331 21.487 21.6272C21.705 21.4093 21.8261 21.1187 21.814 20.8159C21.7898 18.9026 23.0007 17.2315 24.8171 16.6624C24.9382 16.6261 25.0714 16.5655 25.1683 16.4808C25.4105 16.2991 25.5679 16.0327 25.6042 15.7542C25.6527 15.4515 25.58 15.1487 25.3984 14.8944C24.2601 13.3565 24.248 11.2979 25.3862 9.78428L25.5316 9.61475L25.5921 9.43311C25.689 9.14248 25.6527 8.82764 25.5195 8.57334C25.3741 8.29482 25.132 8.08896 24.8534 8.0042C23.037 7.42295 21.8382 5.76396 21.8503 3.86279C21.8503 3.71748 21.8261 3.58428 21.7898 3.46318C21.6929 3.18467 21.487 2.95459 21.2085 2.80928C20.93 2.67607 20.6394 2.66396 20.3609 2.76084C19.9128 2.91826 19.4527 2.99092 18.9804 2.99092C17.5878 2.99092 16.28 2.31279 15.4808 1.18662C15.396 1.07764 15.2991 0.980761 15.2144 0.920215C14.7058 0.556933 13.9913 0.678027 13.628 1.18662C12.8288 2.3249 11.521 2.99092 10.1284 2.99092C9.65617 2.99092 9.19601 2.91826 8.76008 2.76084C8.37258 2.62764 7.87609 2.72451 7.58547 3.03936C7.3675 3.25732 7.2464 3.54795 7.25851 3.85068C7.28273 5.76396 6.0718 7.42295 4.2675 7.99209C4.1343 8.02842 4.02531 8.08896 3.90422 8.17373C3.40773 8.54912 3.29875 9.26357 3.67414 9.77217C4.81242 11.3101 4.81242 13.3687 3.67414 14.9065C3.60148 15.0034 3.54094 15.1245 3.50461 15.2335C3.41984 15.5241 3.44406 15.8147 3.58937 16.1054C3.73469 16.3718 3.97687 16.5776 4.25539 16.6624C6.0718 17.2437 7.27062 18.9147 7.2464 20.7917C7.2343 20.937 7.25851 21.0702 7.30695 21.2034C7.40383 21.4819 7.60969 21.712 7.8882 21.8573C8.16672 21.9905 8.45734 22.0026 8.73586 21.9058C9.19601 21.7483 9.66828 21.6757 10.1405 21.6757C11.5452 21.6757 12.8046 22.3417 13.628 23.4921C13.7007 23.589 13.7976 23.6858 13.8945 23.7585C14.0882 23.9038 14.3183 23.9765 14.5484 23.9765C14.6089 23.9765 14.6816 23.9765 14.7421 23.9644C15.0448 23.9159 15.3112 23.7464 15.4808 23.5042C16.5222 21.93 18.4718 21.2882 20.2882 21.8937ZM14.512 22.814C13.4948 21.3729 11.8359 20.5132 10.08 20.5132C9.48664 20.5132 8.89328 20.6101 8.33625 20.828C8.37258 18.4183 6.83469 16.2991 4.54601 15.5968C5.98703 13.6472 5.98703 11.0315 4.53391 9.11826C6.83469 8.40381 8.37258 6.30889 8.36047 3.88701C8.90539 4.06865 9.48664 4.16553 10.0679 4.16553C11.8359 4.16553 13.4948 3.30576 14.4757 1.86475C15.4929 3.30576 17.164 4.16553 18.932 4.16553C19.5253 4.16553 20.1187 4.06865 20.6515 3.86279C20.6273 6.24834 22.1409 8.34326 24.4175 9.09404C23.0007 11.0315 23.0007 13.6108 24.4175 15.5604C22.1288 16.2991 20.603 18.4062 20.6515 20.7917H20.6394C18.3628 20.0167 15.8683 20.828 14.512 22.814Z" fill="#FF7B7A"/>
<path d="M10.734 23.4316C10.4676 23.2621 10.1043 23.3347 9.93477 23.6011L7.10117 27.9363L5.53906 24.7394L2.29375 24.7273L5.26055 20.1863C5.44219 19.9199 5.35742 19.5566 5.09102 19.3871C4.82461 19.2054 4.46133 19.2902 4.2918 19.5566L0.150391 25.8898L4.82461 25.9019L6.96797 30.2855L10.9156 24.2308C11.0852 23.9644 11.0004 23.6011 10.734 23.4316Z" fill="#FF7B7A"/>
<path d="M24.7083 19.5444C24.5266 19.278 24.1755 19.2054 23.9091 19.3749C23.6427 19.5565 23.57 19.9077 23.7395 20.1741L26.7184 24.7272L23.4731 24.7393L21.911 27.9362L19.0653 23.589C18.8837 23.3225 18.5325 23.2499 18.2661 23.4194C17.9997 23.6011 17.927 23.9522 18.0966 24.2186L22.0563 30.2854L24.1997 25.9018L28.8739 25.8897L24.7083 19.5444Z" fill="#FF7B7A"/>
</svg>

<svg width="29" height="31" fill="none" xmlns="http://www.w3.org/2000/svg"><path d="M20.942 12.315a.925.925 0 00-.57-.847 9.366 9.366 0 01-5.024-5.001.935.935 0 00-1.72 0 9.34 9.34 0 01-5.001 4.989.925.925 0 00-.57.847c0 .376.219.703.558.86 2.18.957 3.996 2.797 5 5.062a.918.918 0 001.695-.012c.946-2.192 2.798-4.033 5.063-5.038a.948.948 0 00.569-.86zm-6.479 4.965c-1.077-2.155-2.833-3.923-4.916-4.965A10.548 10.548 0 0014.476 7.4a10.488 10.488 0 004.964 4.929c-2.155 1.09-3.935 2.857-4.977 4.952z" fill="#FF7B7A"/><path d="M20.288 21.894c.11.036.255.084.436.072.29-.012.557-.133.763-.339.218-.218.34-.508.327-.811a4.27 4.27 0 013.003-4.154.973.973 0 00.351-.181 1.1 1.1 0 00.436-.727 1.152 1.152 0 00-.206-.86c-1.138-1.537-1.15-3.596-.012-5.11l.146-.17.06-.18c.097-.292.06-.606-.072-.86a1.138 1.138 0 00-.667-.57 4.291 4.291 0 01-3.003-4.141c0-.146-.024-.279-.06-.4a1.18 1.18 0 00-.581-.654 1.089 1.089 0 00-.848-.048 4.13 4.13 0 01-1.38.23 4.298 4.298 0 01-3.5-1.804 1.384 1.384 0 00-.267-.267 1.142 1.142 0 00-1.586.267 4.266 4.266 0 01-3.5 1.804 4.01 4.01 0 01-1.368-.23c-.387-.133-.884-.036-1.175.278a1.083 1.083 0 00-.326.812 4.259 4.259 0 01-2.992 4.141 1.137 1.137 0 00-.363.182 1.151 1.151 0 00-.23 1.598 4.287 4.287 0 010 5.134 1.203 1.203 0 00-.17.327c-.084.291-.06.582.085.872.146.267.388.473.666.557a4.272 4.272 0 012.991 4.13.948.948 0 00.06.411c.098.279.304.509.582.654.279.134.57.146.848.049a4.32 4.32 0 011.404-.23c1.405 0 2.665.666 3.488 1.816.073.097.17.194.267.267.193.145.423.218.653.218.06 0 .134 0 .194-.013a1.12 1.12 0 00.739-.46c1.041-1.574 2.99-2.216 4.807-1.61zm-5.776.92a5.437 5.437 0 00-4.432-2.3 4.78 4.78 0 00-1.744.314 5.363 5.363 0 00-3.79-5.231c1.441-1.95 1.441-4.566-.012-6.479A5.41 5.41 0 008.36 3.887a5.424 5.424 0 001.708.279c1.768 0 3.427-.86 4.408-2.301a5.465 5.465 0 004.456 2.3c.593 0 1.187-.096 1.72-.302-.025 2.385 1.489 4.48 3.765 5.231a5.45 5.45 0 000 6.466c-2.288.74-3.814 2.846-3.766 5.232h-.012c-2.276-.775-4.77.036-6.127 2.022z" fill="#FF7B7A"/><path d="M10.734 23.432a.582.582 0 00-.8.17l-2.833 4.334L5.54 24.74l-3.245-.012 2.967-4.54a.571.571 0 00-.17-.8.571.571 0 00-.8.17L.152 25.89l4.674.012 2.143 4.383 3.948-6.054a.585.585 0 00-.182-.8zm13.974-3.888a.584.584 0 00-.799-.17.584.584 0 00-.17.8l2.98 4.553-3.246.012-1.562 3.197-2.846-4.347a.584.584 0 00-.799-.17.584.584 0 00-.17.8l3.96 6.066 2.144-4.383 4.674-.012-4.166-6.346z" fill="#FF7B7A"/></svg>
